!!!OTL: Fangzhiminmtongzhi weiwanggao
!!!ARE: Asia, China,ÿZhejiang Changshan
!! III, 619
!!!SCT: C2070
!!!YEM: Copyright 1995, estate of Helmut Schaffrath.
**kern
*ICvox
*Ivox
*M2/4
*k[f#]
*G:
{8g
16g
16e
8g
8b
=1
4.a
8b
=2
8dd
8dd
8b
8a
=3
2g}
=4
{8a
4a
8g
=5
8e
8g
8a
8b
=6
8a
8g
8e
8g
=7
2d}
=8
{8e
16e
16g
8e
8g
=9
8g
4e
8d
=10
2e}
=11
{8a
4a
8g
=12
8e
8g
8a
8b
=13
8a
8g
8e
8B
=14
2d}
==
!!!AGN: Xiaodiao
!!!AMT: simple duple
!!!AIN: vox
!!!EED: Helmut Schaffrath
!!!EEV: 1.0
*-
